X:1
T:Rinnländer efter Ola Olsson
N:fått av karlarna Mattisson
O:Skarup, Blekinge
M:2/4
L:1/16
R:Schottis
K:G
Q:75
D2| G2GB G2GB | G2GB d2d2 | e2AB c2c2 | dcBd g2g2 | G2GB G2GB | G2GB d2d2 | e2AB c2BA |1 G2G2G2 :|2 G2G2 G4 |
|: e2G2 c4 | d2G2 B4 | D2FA c2BA | G2Bd g4 | e2G2 c4 | d2G2 B4 | D2FA c2BA |1 G2G2 G4 :|2 G2G2G2

